symbolic/24x24/places/folder-white-pcloud.svg

<svg xmlns="http://www.w3.org/2000/svg" width="24" height="24" version="1">
 <rect style="opacity:0.2" width="20" height="12" x="2" y="9.5" rx="1" ry="1"/>
 <path style="fill:#cccccc" d="M 2,17 C 2,17.554 2.446,18 3,18 H 21 C 21.554,18 22,17.554 22,17 V 6 C 22,5.446 21.554,5 21,5 H 12 C 10.5,5 10,3 8.5,3 H 3 C 2.446,3 2,3.446 2,4"/>
 <rect style="opacity:0.2" width="20" height="12" x="2" y="8.5" rx="1" ry="1"/>
 <rect style="fill:#ffffff" width="16" height="8" x="4" y="7" rx="1" ry="1"/>
 <rect style="fill:#e4e4e4" width="20" height="12" x="2" y="9" rx="1" ry="1"/>
 <path style="opacity:0.1;fill:#ffffff" d="M 3,3 C 2.446,3 2,3.446 2,4 V 4.5 C 2,3.946 2.446,3.5 3,3.5 H 8.5 C 10,3.5 10.5,5.5 12,5.5 H 21 C 21.554,5.5 22,5.946 22,6.5 V 6 C 22,5.446 21.554,5 21,5 H 12 C 10.5,5 10,3 8.5,3 Z"/>
 <path style="fill:#4f4f4f" d="M 11.818359 11 A 3.6363636 3.6363636 0 0 0 8.4707031 13.216797 A 2.9090909 2.9090909 0 0 0 6 16.091797 A 2.9090909 2.9090909 0 0 0 8.7695312 18.992188 L 8.7695312 19 L 15.835938 19 A 1.8008658 1.8008658 0 0 0 16.041016 18.986328 A 1.75 1.75 0 0 0 16.25 19 A 1.75 1.75 0 0 0 18 17.25 A 1.75 1.75 0 0 0 16.804688 15.591797 A 1.8181818 1.8181818 0 0 0 16.908203 15 A 1.8181818 1.8181818 0 0 0 15.148438 13.185547 A 3.6363636 3.6363636 0 0 0 11.818359 11 z M 10 13 L 11 13 L 12.910156 13 L 12.910156 16 L 11 16 L 11 17.5 L 10 17.5 L 10 16 L 10 13 z M 11 14 L 11 15 L 12 15 L 12 14 L 11 14 z"/>
</svg>

<svg xmlns="http://www.w3.org/2000/svg" width="24" height="24" version="1"><rect style="opacity:.2" width="20" height="12" x="2" y="9.5" rx="1" ry="1"/><path style="fill:#ccc" d="M2 17c0 .554.446 1 1 1h18c.554 0 1-.446 1-1V6c0-.554-.446-1-1-1h-9c-1.5 0-2-2-3.5-2H3c-.554 0-1 .446-1 1"/><rect style="opacity:.2" width="20" height="12" x="2" y="8.5" rx="1" ry="1"/><rect style="fill:#fff" width="16" height="8" x="4" y="7" rx="1" ry="1"/><rect style="fill:#e4e4e4" width="20" height="12" x="2" y="9" rx="1" ry="1"/><path style="opacity:.1;fill:#fff" d="M3 3c-.554 0-1 .446-1 1v.5c0-.554.446-1 1-1h5.5c1.5 0 2 2 3.5 2h9c.554 0 1 .446 1 1V6c0-.554-.446-1-1-1h-9c-1.5 0-2-2-3.5-2z"/><path style="fill:#4f4f4f" d="M11.818 11a3.636 3.636 0 0 0-3.347 2.217A2.91 2.91 0 0 0 6 16.092a2.91 2.91 0 0 0 2.77 2.9V19h7.066a1.8 1.8 0 0 0 .205-.014 1.75 1.75 0 0 0 .209.014A1.75 1.75 0 0 0 18 17.25a1.75 1.75 0 0 0-1.195-1.658 1.818 1.818 0 0 0 .103-.592 1.818 1.818 0 0 0-1.76-1.814A3.636 3.636 0 0 0 11.818 11zM10 13h2.91v3H11v1.5h-1V13zm1 1v1h1v-1h-1z"/></svg>
